X: 36814
T: Shetland Turtle, The
R: reel
M: 4/4
K: Aminor
EABA cABA|EABA cABA|deee gedB|GABd eedB|
EABA cABA|EABA cABA|deee gedB|GABd BAAA:|
|:A2 za geag|e^fge dBAF|G2 cG eGcG|
deee gedB|A2 za geag|e^fge dBAF|
[1 GA B/^c/d gedB|GABd BAAA:|2 GA B/^c/d gefd|eggg edBG||

